X: 492
T: The Lads of Glasgow
%R: reel
B: "Preston's Twenty Four Country Dances for the Year 1803", Tho. Preston, ed. p.206
F: http://archive.org/details/Prestons24CountryDancesForTheYear1805
F: http://folkopedia.efdss.org/wiki/File:Preston_24_1803.PDF
Z: 2011,2014 John Chambers <jc:trillian.mit.edu>
N: The lower left corner is torn off, and part of the dance description is missing.
N: The rhythm doesn't quite match at the strain boundaries; not fixed.
M: 2/4
L: 1/8
K: G
|:\
g2dc | Bcde | fdcB | cAA2 |\
g2dc | Bcde | cAdc | BGG2 :|
|: d |\
BGdG | eGdG | BGdG | cAAd |\
BGdG | eGdG | DEFD | GG, G, :|
% - - - - - - - - - - - - - - - - - - - - - - - - -
%%begintext align
%% 1st Cu. hands 3 round with the 2d Lady,
%% then with her partr ***missing***
%% dle & Allemand ***missing***
%%endtext

%%sep 1 1 500
%%sep 1 1 500
